icon-svg/yeelight-cube2.svg

<svg width="24" height="24" viewBox="0 0 24 24" fill="none" xmlns="http://www.w3.org/2000/svg">
    <path fill-rule="evenodd" clip-rule="evenodd"
        d="M22 5.2V21.632C22.2935 21.2762 22.5779 20.9139 22.8442 20.5746C23.0025 20.3728 23.1545 20.1792 23.2981 20C23.7373 19.4522 24 18.7568 24 18V3.2C24 1.43269 22.5673 0 20.8 0H5.6C4.68485 0 3.85943 0.384154 3.2762 1C2.96039 1.33346 2.65911 1.6655 2.36573 2H18.8C20.5673 2 22 3.43269 22 5.2ZM0 6C0 4.23269 1.43269 2.8 3.2 2.8H18C19.7673 2.8 21.2 4.23269 21.2 6V20.8C21.2 22.5673 19.7673 24 18 24H3.2C1.43269 24 0 22.5673 0 20.8V6ZM10.6 22.4C15.5706 22.4 19.6 18.3706 19.6 13.4C19.6 8.42943 15.5706 4.4 10.6 4.4C5.62944 4.4 1.6 8.42943 1.6 13.4C1.6 18.3706 5.62944 22.4 10.6 22.4ZM10.6 20.4C14.466 20.4 17.6 17.266 17.6 13.4C17.6 9.534 14.466 6.4 10.6 6.4C6.734 6.4 3.59999 9.534 3.59999 13.4C3.59999 17.266 6.734 20.4 10.6 20.4ZM12.6 18.6C14.0863 17.4241 14.778 16.5803 15.8 14.8C15.8 14.8 15.7788 16.7713 15 17.6C14.3046 18.3399 12.6 18.6 12.6 18.6ZM7 12.2H5.6C5.6 11.4 6.41396 10.0744 7.6 9.6H10.4C9.0645 9.93387 7.46672 10.7998 7 12.2Z"
        fill="#44739E" />
</svg>

<svg xmlns="http://www.w3.org/2000/svg" fill="none" viewBox="0 0 24 24"><path fill="#44739e" fill-rule="evenodd" d="M22 5.2v16.432c.2935-.3558.5779-.7181.8442-1.0574.1583-.2018.3103-.3954.4539-.5746A3.186 3.186 0 0 0 24 18V3.2C24 1.4327 22.5673 0 20.8 0H5.6c-.9151 0-1.7406.3842-2.3238 1-.3158.3335-.617.6655-.9105 1H18.8C20.5673 2 22 3.4327 22 5.2M0 6c0-1.7673 1.4327-3.2 3.2-3.2H18c1.7673 0 3.2 1.4327 3.2 3.2v14.8c0 1.7673-1.4327 3.2-3.2 3.2H3.2C1.4327 24 0 22.5673 0 20.8zm10.6 16.4c4.9706 0 9-4.0294 9-9s-4.0294-9-9-9-9 4.0294-9 9 4.0294 9 9 9m0-2c3.866 0 7-3.134 7-7s-3.134-7-7-7-7 3.134-7 7 3.134 7 7 7m2-1.8c1.4863-1.1759 2.178-2.0197 3.2-3.8 0 0-.0212 1.9713-.8 2.8-.6954.7399-2.4 1-2.4 1M7 12.2H5.6c0-.8.814-2.1256 2-2.6h2.8c-1.3355.3339-2.9333 1.1998-3.4 2.6" clip-rule="evenodd"/></svg>
